plasma/desktoptheme/ArcAurora-dark/icons/manjaro.svg

<?xml version="1.0" encoding="UTF-8" standalone="no"?>
<svg
   xmlns:dc="http://purl.org/dc/elements/1.1/"
   xmlns:cc="http://creativecommons.org/ns#"
   xmlns:rdf="http://www.w3.org/1999/02/22-rdf-syntax-ns#"
   xmlns:svg="http://www.w3.org/2000/svg"
   xmlns="http://www.w3.org/2000/svg"
   xmlns:sodipodi="http://sodipodi.sourceforge.net/DTD/sodipodi-0.dtd"
   xmlns:inkscape="http://www.inkscape.org/namespaces/inkscape"
   inkscape:version="1.0.1 (3bc2e813f5, 2020-09-07)"
   sodipodi:docname="manjaro.svg"
   version="1.1"
   height="22"
   width="22"
   id="svg">
  <sodipodi:namedview
     inkscape:current-layer="svg"
     inkscape:window-maximized="1"
     inkscape:window-y="38"
     inkscape:window-x="0"
     inkscape:cy="-8.8200133"
     inkscape:cx="-15.724634"
     inkscape:zoom="5.6568545"
     inkscape:snap-bbox-edge-midpoints="true"
     inkscape:bbox-nodes="true"
     inkscape:snap-bbox="true"
     showgrid="true"
     id="namedview15"
     inkscape:window-height="935"
     inkscape:window-width="1920"
     inkscape:pageshadow="2"
     inkscape:pageopacity="0"
     guidetolerance="10"
     gridtolerance="10"
     objecttolerance="10"
     borderopacity="1"
     bordercolor="#666666"
     pagecolor="#c8c8c8"
     inkscape:document-rotation="0">
    <inkscape:grid
       id="grid840"
       type="xygrid" />
  </sodipodi:namedview>
  <metadata
     id="metadata23">
    <rdf:RDF>
      <cc:Work
         rdf:about="">
        <dc:format>image/svg+xml</dc:format>
        <dc:type
           rdf:resource="http://purl.org/dc/dcmitype/StillImage" />
        <dc:title />
      </cc:Work>
    </rdf:RDF>
  </metadata>
  <defs
     id="defs5">
    <style
       type="text/css"
       id="current-color-scheme"> .ColorScheme-Text { color:#363636; } </style>
    <style
       type="text/css"
       id="style842" />
  </defs>
  <g
     id="22-22-manjaro-settings-manager">
    <rect
       style="color:#363636;fill:#363636"
       y="0"
       x="0"
       id="rect7"
       fill-opacity="0"
       height="22"
       width="22" />
    <path
       id="path846"
       style="fill:#fbfbfb;fill-opacity:1;stroke-width:0.015625"
       d="M 9 9 L 9 19 L 13 19 L 13 9 L 9 9 z " />
    <path
       id="path909"
       style="fill:#fbfbfb;fill-opacity:1;stroke-width:0.015625"
       d="M 4.9511719 3 A 2 2 0 0 0 4.8320312 3.0078125 A 2 2 0 0 0 4.7128906 3.0214844 A 2 2 0 0 0 4.5957031 3.0410156 A 2 2 0 0 0 4.4804688 3.0683594 A 2 2 0 0 0 4.3671875 3.1035156 A 2 2 0 0 0 4.2558594 3.1445312 A 2 2 0 0 0 4.1464844 3.1914062 A 2 2 0 0 0 4.0410156 3.2460938 A 2 2 0 0 0 3.9375 3.3046875 A 2 2 0 0 0 3.8378906 3.3710938 A 2 2 0 0 0 3.7441406 3.4433594 A 2 2 0 0 0 3.6542969 3.5214844 A 2 2 0 0 0 3.5683594 3.6035156 A 2 2 0 0 0 3.4882812 3.6914062 A 2 2 0 0 0 3.4121094 3.7832031 A 2 2 0 0 0 3.34375 3.8789062 A 2 2 0 0 0 3.2792969 3.9804688 A 2 2 0 0 0 3.2226562 4.0839844 A 2 2 0 0 0 3.1699219 4.1914062 A 2 2 0 0 0 3.125 4.3007812 A 2 2 0 0 0 3.0878906 4.4140625 A 2 2 0 0 0 3.0566406 4.5292969 A 2 2 0 0 0 3.03125 4.6445312 A 2 2 0 0 0 3.0136719 4.7636719 A 2 2 0 0 0 3.0039062 4.8808594 A 2 2 0 0 0 3 5 L 3 5.0488281 L 3 17 L 3 17.048828 A 2 2 0 0 0 3.0078125 17.167969 A 2 2 0 0 0 3.0214844 17.287109 A 2 2 0 0 0 3.0410156 17.404297 A 2 2 0 0 0 3.0683594 17.519531 A 2 2 0 0 0 3.1035156 17.632812 A 2 2 0 0 0 3.1445312 17.744141 A 2 2 0 0 0 3.1914062 17.853516 A 2 2 0 0 0 3.2460938 17.958984 A 2 2 0 0 0 3.3046875 18.0625 A 2 2 0 0 0 3.3710938 18.162109 A 2 2 0 0 0 3.4433594 18.255859 A 2 2 0 0 0 3.5214844 18.345703 A 2 2 0 0 0 3.6035156 18.431641 A 2 2 0 0 0 3.6914062 18.511719 A 2 2 0 0 0 3.7832031 18.587891 A 2 2 0 0 0 3.8789062 18.65625 A 2 2 0 0 0 3.9804688 18.720703 A 2 2 0 0 0 4.0839844 18.777344 A 2 2 0 0 0 4.1914062 18.830078 A 2 2 0 0 0 4.3007812 18.875 A 2 2 0 0 0 4.4140625 18.912109 A 2 2 0 0 0 4.5292969 18.943359 A 2 2 0 0 0 4.6445312 18.96875 A 2 2 0 0 0 4.7636719 18.986328 A 2 2 0 0 0 4.8808594 18.996094 A 2 2 0 0 0 5 19 L 5.0488281 19 L 8 19 L 8 8 L 13 8 L 13 3 L 5 3 L 4.9511719 3 z M 14 3 L 14 19 L 17 19 L 17.048828 19 A 2 2 0 0 0 17.167969 18.992188 A 2 2 0 0 0 17.287109 18.978516 A 2 2 0 0 0 17.404297 18.958984 A 2 2 0 0 0 17.519531 18.931641 A 2 2 0 0 0 17.632812 18.896484 A 2 2 0 0 0 17.744141 18.855469 A 2 2 0 0 0 17.853516 18.808594 A 2 2 0 0 0 17.958984 18.753906 A 2 2 0 0 0 18.0625 18.695312 A 2 2 0 0 0 18.162109 18.628906 A 2 2 0 0 0 18.255859 18.556641 A 2 2 0 0 0 18.345703 18.478516 A 2 2 0 0 0 18.431641 18.396484 A 2 2 0 0 0 18.511719 18.308594 A 2 2 0 0 0 18.587891 18.216797 A 2 2 0 0 0 18.65625 18.121094 A 2 2 0 0 0 18.720703 18.019531 A 2 2 0 0 0 18.777344 17.916016 A 2 2 0 0 0 18.830078 17.808594 A 2 2 0 0 0 18.875 17.699219 A 2 2 0 0 0 18.912109 17.585938 A 2 2 0 0 0 18.943359 17.470703 A 2 2 0 0 0 18.96875 17.355469 A 2 2 0 0 0 18.986328 17.236328 A 2 2 0 0 0 18.996094 17.119141 A 2 2 0 0 0 19 17 L 19 16.951172 L 19 5 L 19 4.9511719 A 2 2 0 0 0 18.992188 4.8320312 A 2 2 0 0 0 18.978516 4.7128906 A 2 2 0 0 0 18.958984 4.5957031 A 2 2 0 0 0 18.931641 4.4804688 A 2 2 0 0 0 18.896484 4.3671875 A 2 2 0 0 0 18.855469 4.2558594 A 2 2 0 0 0 18.808594 4.1464844 A 2 2 0 0 0 18.753906 4.0410156 A 2 2 0 0 0 18.695312 3.9375 A 2 2 0 0 0 18.628906 3.8378906 A 2 2 0 0 0 18.556641 3.7441406 A 2 2 0 0 0 18.478516 3.6542969 A 2 2 0 0 0 18.396484 3.5683594 A 2 2 0 0 0 18.308594 3.4882812 A 2 2 0 0 0 18.216797 3.4121094 A 2 2 0 0 0 18.121094 3.34375 A 2 2 0 0 0 18.019531 3.2792969 A 2 2 0 0 0 17.916016 3.2226562 A 2 2 0 0 0 17.808594 3.1699219 A 2 2 0 0 0 17.699219 3.125 A 2 2 0 0 0 17.585938 3.0878906 A 2 2 0 0 0 17.470703 3.0566406 A 2 2 0 0 0 17.355469 3.03125 A 2 2 0 0 0 17.236328 3.0136719 A 2 2 0 0 0 17.119141 3.0039062 A 2 2 0 0 0 17 3 L 16.951172 3 L 14 3 z " />
  </g>
  <g
     id="manjaro-settings-manager">
    <rect
       style="color:#363636;fill:#363636"
       x="-5"
       id="rect14"
       fill-opacity="0"
       ry="0.63999999"
       height="32"
       width="32"
       y="-39" />
    <path
       id="path856"
       style="fill:#fbfbfb;fill-opacity:1;stroke-width:0.0234375"
       d="M 8 -26 L 8 -11 L 14 -11 L 14 -26 L 8 -26 z " />
    <path
       id="path867"
       style="fill:#fbfbfb;fill-opacity:1;stroke-width:0.0234375"
       d="M 0.95117188 -35 A 2 2 0 0 0 0.83203125 -34.992188 A 2 2 0 0 0 0.71289062 -34.978516 A 2 2 0 0 0 0.59570312 -34.958984 A 2 2 0 0 0 0.48046875 -34.931641 A 2 2 0 0 0 0.3671875 -34.896484 A 2 2 0 0 0 0.25585938 -34.855469 A 2 2 0 0 0 0.14648438 -34.808594 A 2 2 0 0 0 0.041015625 -34.753906 A 2 2 0 0 0 -0.0625 -34.695312 A 2 2 0 0 0 -0.16210938 -34.628906 A 2 2 0 0 0 -0.25585938 -34.556641 A 2 2 0 0 0 -0.34570312 -34.478516 A 2 2 0 0 0 -0.43164062 -34.396484 A 2 2 0 0 0 -0.51171875 -34.308594 A 2 2 0 0 0 -0.58789062 -34.216797 A 2 2 0 0 0 -0.65625 -34.121094 A 2 2 0 0 0 -0.72070312 -34.019531 A 2 2 0 0 0 -0.77734375 -33.916016 A 2 2 0 0 0 -0.83007812 -33.808594 A 2 2 0 0 0 -0.875 -33.699219 A 2 2 0 0 0 -0.91210938 -33.585938 A 2 2 0 0 0 -0.94335938 -33.470703 A 2 2 0 0 0 -0.96875 -33.355469 A 2 2 0 0 0 -0.98632812 -33.236328 A 2 2 0 0 0 -0.99609375 -33.119141 A 2 2 0 0 0 -1 -33 L -1 -32.951172 L -1 -13 L -1 -12.951172 A 2 2 0 0 0 -0.9921875 -12.832031 A 2 2 0 0 0 -0.97851562 -12.712891 A 2 2 0 0 0 -0.95898438 -12.595703 A 2 2 0 0 0 -0.93164062 -12.480469 A 2 2 0 0 0 -0.89648438 -12.367188 A 2 2 0 0 0 -0.85546875 -12.255859 A 2 2 0 0 0 -0.80859375 -12.146484 A 2 2 0 0 0 -0.75390625 -12.041016 A 2 2 0 0 0 -0.6953125 -11.9375 A 2 2 0 0 0 -0.62890625 -11.837891 A 2 2 0 0 0 -0.55664062 -11.744141 A 2 2 0 0 0 -0.47851562 -11.654297 A 2 2 0 0 0 -0.39648438 -11.568359 A 2 2 0 0 0 -0.30859375 -11.488281 A 2 2 0 0 0 -0.21679688 -11.412109 A 2 2 0 0 0 -0.12109375 -11.34375 A 2 2 0 0 0 -0.01953125 -11.279297 A 2 2 0 0 0 0.083984375 -11.222656 A 2 2 0 0 0 0.19140625 -11.169922 A 2 2 0 0 0 0.30078125 -11.125 A 2 2 0 0 0 0.4140625 -11.087891 A 2 2 0 0 0 0.52929688 -11.056641 A 2 2 0 0 0 0.64453125 -11.03125 A 2 2 0 0 0 0.76367188 -11.013672 A 2 2 0 0 0 0.88085938 -11.003906 A 2 2 0 0 0 1 -11 L 1.0488281 -11 L 6 -11 L 6 -28 L 14 -28 L 14 -35 L 1 -35 L 0.95117188 -35 z M 16 -35 L 16 -11 L 21 -11 L 21.048828 -11 A 2 2 0 0 0 21.167969 -11.007812 A 2 2 0 0 0 21.287109 -11.021484 A 2 2 0 0 0 21.404297 -11.041016 A 2 2 0 0 0 21.519531 -11.068359 A 2 2 0 0 0 21.632812 -11.103516 A 2 2 0 0 0 21.744141 -11.144531 A 2 2 0 0 0 21.853516 -11.191406 A 2 2 0 0 0 21.958984 -11.246094 A 2 2 0 0 0 22.0625 -11.304688 A 2 2 0 0 0 22.162109 -11.371094 A 2 2 0 0 0 22.255859 -11.443359 A 2 2 0 0 0 22.345703 -11.521484 A 2 2 0 0 0 22.431641 -11.603516 A 2 2 0 0 0 22.511719 -11.691406 A 2 2 0 0 0 22.587891 -11.783203 A 2 2 0 0 0 22.65625 -11.878906 A 2 2 0 0 0 22.720703 -11.980469 A 2 2 0 0 0 22.777344 -12.083984 A 2 2 0 0 0 22.830078 -12.191406 A 2 2 0 0 0 22.875 -12.300781 A 2 2 0 0 0 22.912109 -12.414062 A 2 2 0 0 0 22.943359 -12.529297 A 2 2 0 0 0 22.96875 -12.644531 A 2 2 0 0 0 22.986328 -12.763672 A 2 2 0 0 0 22.996094 -12.880859 A 2 2 0 0 0 23 -13 L 23 -13.048828 L 23 -33 L 23 -33.048828 A 2 2 0 0 0 22.992188 -33.167969 A 2 2 0 0 0 22.978516 -33.287109 A 2 2 0 0 0 22.958984 -33.404297 A 2 2 0 0 0 22.931641 -33.519531 A 2 2 0 0 0 22.896484 -33.632812 A 2 2 0 0 0 22.855469 -33.744141 A 2 2 0 0 0 22.808594 -33.853516 A 2 2 0 0 0 22.753906 -33.958984 A 2 2 0 0 0 22.695312 -34.0625 A 2 2 0 0 0 22.628906 -34.162109 A 2 2 0 0 0 22.556641 -34.255859 A 2 2 0 0 0 22.478516 -34.345703 A 2 2 0 0 0 22.396484 -34.431641 A 2 2 0 0 0 22.308594 -34.511719 A 2 2 0 0 0 22.216797 -34.587891 A 2 2 0 0 0 22.121094 -34.65625 A 2 2 0 0 0 22.019531 -34.720703 A 2 2 0 0 0 21.916016 -34.777344 A 2 2 0 0 0 21.808594 -34.830078 A 2 2 0 0 0 21.699219 -34.875 A 2 2 0 0 0 21.585938 -34.912109 A 2 2 0 0 0 21.470703 -34.943359 A 2 2 0 0 0 21.355469 -34.96875 A 2 2 0 0 0 21.236328 -34.986328 A 2 2 0 0 0 21.119141 -34.996094 A 2 2 0 0 0 21 -35 L 20.951172 -35 L 16 -35 z " />
  </g>
  <g
     id="16-16-manjaro-settings-manager">
    <rect
       style="color:#363636"
       id="rect17"
       fill="none"
       height="16"
       width="16"
       y="26.999985"
       x="3" />
    <path
       sodipodi:nodetypes="ccccccccccccccccc"
       style="fill:#fbfbfb;fill-opacity:1;stroke-width:0.0117188"
       d="m 5,29 v 12 h 3 v -9 h 5 v -3 z m 4,4 v 8 h 4 v -8 z m 5,-4 v 12 h 3 V 29 Z"
       p-id="13516"
       id="path858" />
  </g>
</svg>

<?xml version="1.0" encoding="UTF-8" standalone="no"?>
<svg
   inkscape:version="1.1.1 (3bf5ae0d25, 2021-09-20, custom)"
   sodipodi:docname="manjaro.svg"
   version="1.1"
   height="22"
   width="22"
   id="svg"
   xmlns:inkscape="http://www.inkscape.org/namespaces/inkscape"
   xmlns:sodipodi="http://sodipodi.sourceforge.net/DTD/sodipodi-0.dtd"
   xmlns="http://www.w3.org/2000/svg"
   xmlns:svg="http://www.w3.org/2000/svg"
   xmlns:rdf="http://www.w3.org/1999/02/22-rdf-syntax-ns#"
   xmlns:cc="http://creativecommons.org/ns#"
   xmlns:dc="http://purl.org/dc/elements/1.1/">
  <sodipodi:namedview
     inkscape:current-layer="svg"
     inkscape:window-maximized="1"
     inkscape:window-y="40"
     inkscape:window-x="0"
     inkscape:cy="11.437499"
     inkscape:cx="-9.5624995"
     inkscape:zoom="8.0000004"
     inkscape:snap-bbox-edge-midpoints="true"
     inkscape:bbox-nodes="true"
     inkscape:snap-bbox="true"
     showgrid="true"
     id="namedview15"
     inkscape:window-height="936"
     inkscape:window-width="1920"
     inkscape:pageshadow="2"
     inkscape:pageopacity="0"
     guidetolerance="10"
     gridtolerance="10"
     objecttolerance="10"
     borderopacity="1"
     bordercolor="#666666"
     pagecolor="#c8c8c8"
     inkscape:document-rotation="0"
     inkscape:pagecheckerboard="0">
    <inkscape:grid
       id="grid840"
       type="xygrid" />
  </sodipodi:namedview>
  <metadata
     id="metadata23">
    <rdf:RDF>
      <cc:Work
         rdf:about="">
        <dc:format>image/svg+xml</dc:format>
        <dc:type
           rdf:resource="http://purl.org/dc/dcmitype/StillImage" />
        <dc:title />
      </cc:Work>
    </rdf:RDF>
  </metadata>
  <defs
     id="defs5">
    <style
       type="text/css"
       id="current-color-scheme"> .ColorScheme-Text { color:#363636; } </style>
    <style
       type="text/css"
       id="style842" />
  </defs>
  <g
     id="manjaro-settings-manager">
    <rect
       style="color:#363636;fill:#363636"
       x="-5"
       id="rect14"
       fill-opacity="0"
       ry="0.63999999"
       height="32"
       width="32"
       y="-39" />
    <path
       sodipodi:nodetypes="ccccccccccccccccc"
       style="fill:#fbfbfb;fill-opacity:1;stroke-width:0.0234375"
       d="m -1,-35 v 24 h 7 v -17 h 8 v -7 z m 9,9 v 15 h 6 v -15 z m 8,-9 v 24 h 7 v -24 z"
       p-id="13516"
       id="path905" />
  </g>
  <g
     id="22-22-manjaro-settings-manager">
    <rect
       style="color:#363636;fill:#363636"
       y="0"
       x="0"
       id="rect7"
       fill-opacity="0"
       height="22"
       width="22" />
    <path
       sodipodi:nodetypes="ccccccccccccccccc"
       id="path921"
       p-id="13516"
       d="M 3,3 V 19 H 8 V 8 h 5 V 3 Z m 6,6 v 10 h 4 V 9 Z m 5,-6 v 16 h 5 V 3 Z"
       style="fill:#fbfbfb;fill-opacity:1;stroke-width:0.015625" />
  </g>
  <g
     id="16-16-manjaro-settings-manager">
    <rect
       style="color:#363636"
       id="rect17"
       fill="none"
       height="16"
       width="16"
       y="26.999985"
       x="3" />
    <path
       sodipodi:nodetypes="ccccccccccccccccc"
       style="fill:#fbfbfb;fill-opacity:1;stroke-width:0.0117188"
       d="m 5,29 v 12 h 3 v -9 h 5 v -3 z m 4,4 v 8 h 4 v -8 z m 5,-4 v 12 h 3 V 29 Z"
       p-id="13516"
       id="path936" />
  </g>
</svg>
